src/imgs/logos/dazn.svg

<svg height="825" viewBox="0 0 825 825" width="825" xmlns="http://www.w3.org/2000/svg"><g fill-rule="evenodd"><path d="m622.37496 249.125c25.75 62.125 46.875 113.125 46.875 113.375s-9.75.5-21.75.5h-21.75l-5.625-13.5-5.625-13.375h-57.74996-57.75l-5.375 13.125-5.375 13.125-22.125.375c-17.5.25-22 0-21.5-1.25.375-.875 21.25-51.375 46.5-112.25s46.125-111.375 46.5-112.25c.5-1.125 5.125-1.5 19.375-1.25l18.625.375zm-85.24996-3.875c-10.5 25.25-19.375 46.875-19.875 48-.75 2.125 1.625 2.25 39.5 2.25 32.25 0 40.12496-.375 39.74996-1.625-.875-3.5-39.12496-94.625-39.74996-94.625-.375 0-9.125 20.75-19.625 46z"/><path d="m0 0h824.995741v362.298984l-49.281226 49.915702 49.281226 48.945469v363.269218h-824.995741v-363.269218l49.5560468-49.563216-49.5560468-49.297955zm40.5880561 39.3983123v306.4330577l66.5489249 66.476305-66.5489249 66.9224v305.491301h744.9334499v-305.491301l-66.784076-66.9224 66.784076-66.476305v-306.4330577z"/><path d="m553.125 544 56.74996 81.125.375-81.125.25-81h20 20v113.75 113.75h-22.75-22.875l-50.62496-73.625-50.625-73.5-.375 73.625-.25 73.5h-21.25-21.25v-113.75-113.75h17.875 17.875z"/><path d="m348 482.875v19.875l-59.375 73.625-59.25 73.5 59.25.375 59.375.25v20 20h-86.25-86.25v-20.375l.125-20.25 59.75-73.125 59.75-73.125-59.875-.375-59.75-.25v-20-20h86.25 86.25z"/><path d="m339.5 161.375 26 26v61.875 61.875l-25.875 25.875-26 26h-69-69.125v-113.75-113.75h69 69.125zm-124 87.875v73.75h40.5 40.5l13.25-14.25 13.25-14.125v-45.25-45.375l-13.375-14.25-13.375-14.25h-40.375-40.375z"/></g></svg>

<svg width="825px" height="825px" viewBox="0 0 825 825" version="1.1" xmlns="http://www.w3.org/2000/svg" xmlns:xlink="http://www.w3.org/1999/xlink">
    <g id="Page-1" stroke="none" stroke-width="1" fill="none" fill-rule="evenodd">
        <g id="DAZN_logo" fill="#000000">
            <path d="M622.37496,249.125 C648.12496,311.25 669.24996,362.25 669.24996,362.5 C669.24996,362.75 659.49996,363 647.49996,363 L625.74996,363 L620.12496,349.5 L614.49996,336.125 L556.75,336.125 L499,336.125 L493.625,349.25 L488.25,362.375 L466.125,362.75 C448.625,363 444.125,362.75 444.625,361.5 C445,360.625 465.875,310.125 491.125,249.25 C516.375,188.375 537.25,137.875 537.625,137 C538.125,135.875 542.75,135.5 557,135.75 L575.625,136.125 L622.37496,249.125 Z M537.125,245.25 C526.625,270.5 517.75,292.125 517.25,293.25 C516.5,295.375 518.875,295.5 556.75,295.5 C589,295.5 596.87496,295.125 596.49996,293.875 C595.62496,290.375 557.375,199.25 556.75,199.25 C556.375,199.25 547.625,220 537.125,245.25 Z" id="Combined-Shape"></path>
            <path d="M0,0 L824.995741,0 L824.995741,362.298984 L775.714515,412.214686 L824.995741,461.160155 L824.995741,824.429373 L0,824.429373 L0,461.160155 L49.5560468,411.596939 L0,362.298984 L0,0 Z M40.5880561,39.3983123 L40.5880561,345.83137 L107.136981,412.307675 L40.5880561,479.230075 L40.5880561,784.721376 L785.521506,784.721376 L785.521506,479.230075 L718.73743,412.307675 L785.521506,345.83137 L785.521506,39.3983123 L40.5880561,39.3983123 Z" id="Combined-Shape"></path>
            <polygon id="path4672-path" points="553.125 544 609.87496 625.125 610.24996 544 610.49996 463 630.49996 463 650.49996 463 650.49996 576.75 650.49996 690.5 627.74996 690.5 604.87496 690.5 554.25 616.875 503.625 543.375 503.25 617 503 690.5 481.75 690.5 460.5 690.5 460.5 576.75 460.5 463 478.375 463 496.25 463"></polygon>
            <polygon id="path4672-path" points="348 482.875 348 502.75 288.625 576.375 229.375 649.875 288.625 650.25 348 650.5 348 670.5 348 690.5 261.75 690.5 175.5 690.5 175.5 670.125 175.625 649.875 235.375 576.75 295.125 503.625 235.25 503.25 175.5 503 175.5 483 175.5 463 261.75 463 348 463"></polygon>
            <path d="M339.5,161.375 L365.5,187.375 L365.5,249.25 L365.5,311.125 L339.625,337 L313.625,363 L244.625,363 L175.5,363 L175.5,249.25 L175.5,135.5 L244.5,135.5 L313.625,135.5 L339.5,161.375 Z M215.5,249.25 L215.5,323 L256,323 L296.5,323 L309.75,308.75 L323,294.625 L323,249.375 L323,204 L309.625,189.75 L296.25,175.5 L255.875,175.5 L215.5,175.5 L215.5,249.25 Z" id="Combined-Shape"></path>
        </g>
    </g>
</svg>
